images/icons/editor-text-bold.svg

<svg width="16" height="16" viewBox="0 0 16 16" xmlns="http://www.w3.org/2000/svg"
  aria-hidden="true" focusable="false">
  <g fill-rule="evenodd">
    <rect fill="none" x="0" y="0" width="16" height="16"></rect>
    <path
      d="M8.66102 16C9.4661 16 10.197 15.8828 10.8538 15.6485C11.5106 15.4142 12.0742 15.0832 12.5445 14.6555C13.0148 14.2278 13.375 13.709 13.625 13.099C13.875 12.4891 14 11.8122 14 11.0683C14 10.7782 13.9619 10.4807 13.8856 10.1757C13.8093 9.87076 13.7013 9.58066 13.5614 9.30544C13.4216 9.03022 13.2564 8.77917 13.0657 8.5523C12.875 8.32543 12.6737 8.12645 12.4619 7.95537C12.2924 7.82892 12.2924 7.69131 12.4619 7.54254C12.8432 7.20781 13.161 6.7708 13.4153 6.23152C13.6695 5.69224 13.7966 5.16969 13.7966 4.66388C13.7966 4.02418 13.6653 3.4198 13.4025 2.85077C13.1398 2.28173 12.7797 1.78708 12.322 1.36681C11.8644 0.946537 11.322 0.613668 10.6949 0.368201C10.0678 0.122734 9.38983 0 8.66102 0H2.52119C2.38559 0 2.26483 0.04649 2.1589 0.13947C2.05297 0.23245 2 0.338447 2 0.457462V15.5425C2 15.6616 2.05297 15.7675 2.1589 15.8605C2.26483 15.9535 2.38559 16 2.52119 16H8.66102ZM8.5339 6.14784H5.82627C5.65678 6.14784 5.57203 6.07345 5.57203 5.92469V3.43654C5.57203 3.28033 5.65678 3.20223 5.82627 3.20223H8.5339C8.98305 3.20223 9.38136 3.34728 9.72881 3.63738C10.0763 3.92748 10.25 4.26964 10.25 4.66388C10.25 5.05811 10.0763 5.404 9.72881 5.70153C9.38136 5.99907 8.98305 6.14784 8.5339 6.14784ZM5.82627 12.7978H8.5339C9.09322 12.7978 9.53814 12.623 9.86864 12.2734C10.1992 11.9238 10.3644 11.5221 10.3644 11.0683C10.3644 10.6295 10.1992 10.2334 9.86864 9.88006C9.53814 9.52673 9.09322 9.35007 8.5339 9.35007H5.82627C5.65678 9.35007 5.57203 9.42817 5.57203 9.58438V12.5746C5.57203 12.7234 5.65678 12.7978 5.82627 12.7978Z"
      fill="currentColor" />
  </g>
</svg>

<svg xmlns="http://www.w3.org/2000/svg" width="16" height="16" viewBox="0 0 16 16" aria-hidden="true" focusable="false"><g fill-rule="evenodd"><rect fill="none" stroke="none" x="0" y="0" width="16" height="16"></rect><path fill="currentColor" stroke="none" d="M8.661 16c.805 0 1.536-.117 2.193-.351a4.953 4.953 0 001.69-.993c.47-.428.831-.947 1.081-1.557s.375-1.287.375-2.03c0-.29-.038-.588-.114-.893a4.123 4.123 0 00-.325-.87 3.937 3.937 0 00-.495-.754 4.412 4.412 0 00-.604-.597c-.17-.126-.17-.264 0-.412.381-.335.699-.772.953-1.311.254-.54.382-1.062.382-1.568 0-.64-.132-1.244-.394-1.813a4.628 4.628 0 00-1.081-1.484c-.458-.42-1-.753-1.627-.999A5.531 5.531 0 008.66 0h-6.14a.534.534 0 00-.362.14A.415.415 0 002 .456v15.086c0 .119.053.225.159.318.106.093.227.139.362.139h6.14zm-.127-9.852H5.826c-.17 0-.254-.075-.254-.223V3.437c0-.157.085-.235.254-.235h2.708c.45 0 .847.145 1.195.435.347.29.521.633.521 1.027 0 .394-.174.74-.521 1.038a1.784 1.784 0 01-1.195.446zm0 6.65H5.826c-.17 0-.254-.075-.254-.223v-2.99c0-.157.085-.235.254-.235h2.708c.56 0 1.004.177 1.335.53.33.353.495.75.495 1.188 0 .454-.165.856-.495 1.205-.33.35-.776.525-1.335.525z"></path></g></svg>
